libs/ui/packages/crypto-icons/src/svg/LYX.svg

<svg width="24" height="24" stroke-miterlimit="10" version="1.1" viewBox="0 0 24 24" xml:space="preserve" xmlns="http://www.w3.org/2000/svg" xmlns:xlink="http://www.w3.org/1999/xlink">
<path d="M18.5291 6.5113L13.4538 3.57793C12.5544 3.05736 11.4457 3.05736 10.5462 3.57793L5.47088 6.5113C4.57143 7.03188 4.01709 7.99309 4.01709 9.03426L4.01709 14.9031C4.01709 15.9443 4.57143 16.9055 5.47088 17.4261L10.5462 20.3595C11.4457 20.88 12.5544 20.88 13.4538 20.3595L18.5291 17.4261C19.4286 16.9055 19.9829 15.9443 19.9829 14.9031L19.9829 9.03426C19.9829 7.99309 19.4286 7.03188 18.5291 6.5113ZM16.0271 12.5508L14.5172 15.1688C14.3101 15.5296 13.9262 15.7521 13.5099 15.7521L10.4901 15.7521C10.0738 15.7521 9.68991 15.5296 9.48282 15.1688L7.97297 12.5508C7.76589 12.1901 7.76589 11.7473 7.97297 11.3866L9.48282 8.76856C9.68991 8.40784 10.0738 8.18535 10.4901 8.18535L13.5099 8.18535C13.9262 8.18535 14.3101 8.40784 14.5172 8.76856L16.0271 11.3866C16.2341 11.7451 16.2341 12.1901 16.0271 12.5508Z" fill="#131313" fill-rule="nonzero" opacity="1" stroke="none"/>
</svg>

<svg xmlns="http://www.w3.org/2000/svg" xml:space="preserve" width="24" height="24" viewBox="0 0 24 24" stroke-miterlimit="10"><path fill="#131313" d="m18.53 6.511-5.076-2.933c-.9-.52-2.008-.52-2.908 0L5.471 6.51a2.91 2.91 0 0 0-1.454 2.523v5.87c0 1.04.554 2.002 1.454 2.522l5.075 2.934c.9.52 2.008.52 2.908 0l5.075-2.934a2.91 2.91 0 0 0 1.454-2.523V9.034a2.91 2.91 0 0 0-1.454-2.523m-2.503 6.04-1.51 2.618c-.207.36-.59.583-1.007.583h-3.02c-.416 0-.8-.222-1.007-.583l-1.51-2.618a1.17 1.17 0 0 1 0-1.164l1.51-2.618a1.16 1.16 0 0 1 1.007-.584h3.02c.416 0 .8.223 1.007.584l1.51 2.618c.207.358.207.803 0 1.164"/></svg>
